X:251
T:The Devil is among the taylors   
O:No 251 Wm Clarke of Feltwell 
M:4/4
L:1/8
K:G
(gf)gd (gf)gd| (ef)ge edcB| ceAe ceAe| ceAe (cB)AG| (ge)gd (gf)gd| (ef)ge (ed)cB| (ed)cB cBAG| D2 F2 G4:||
: BdGd BdGd| BdGd (cB)AG| ceAe ceAe| ceAe (fe)dc| BdGd BdGd| BdGB (cB)AG| (ef)ge (dB)AG| D2 F2 G4:||

